X: 1
T: Sir David Davidson of Cantray
C: John Lowe
B: Kerr's Violin #3
S: handwritten MS by Barbara McOwen
R: reel
Z: 2005 John Chambers <jc:trillian.mit.edu>
M: C|
L: 1/8
K: D
Bc | "D"d2fd cdBd |  "D"AdFd "A"EecA |  "D"d2fd "Bm"cdAF | "A7"GEec "D"d2 :|
fg | "D"afdf afba | "Em"gfed "A"cdef | "A7"gfed     cbag | "A7"fedc "D"d2 ||
fg | "D"afdf afba | "Em"gfed "A"cBAG | "Bm"FAdc  "G"Bbag | "A7"fedc "D"d2 :|
